!!!COM: Bach, Johann Sebastian
!!!OPR: Joh. Seb. Bachs vierstimmige Choralgesänge
!!!XEN: Four-part Chorales
!!!OTL: Chorale 73. Herr Gott, dich loben alle wir
!!!SCT: BWV 326
!!!SCA: Thematisch-systematisches Verzeichnis der musikalischen Werke Johann Sebastian Bach: Bach-Werke-Verzeichnis (Schmieder)
!!!YOR: Bach Gesellschaft Edition xxxix
!!!ENC: Steven Rasmussen
!!!CDT: 1685/3//-1750/7/28/
!!!OCY: Deutschland
!!!YEC: Copyright (c) 1994, 2000 Center for Computer Assisted Research in the Humanities
!!!YEM: Rights to all derivative editions reserved
!!!YEN: United States of America
**kern	**silbe	**kern	**kern	**silbe	**kern	**silbe
*I:[BASSO]	*I:[BASSO]	*I:[TENORE]	*I:[ALTO]	*I:[ALTO]	*I:[SOPRANO]	*I:[SOPRANO]
*clefF4	*	*clefGv2	*clefG2	*	*clefG2	*
*k[b-e-]	*	*k[b-e-]	*k[b-e-]	*	*k[b-e-]	*
*B-:	*	*B-:	*B-:	*	*B-:	*
*M3/4	*	*M3/4	*M3/4	*	*M3/4	*
8BB-L	.	4d	4f	.	4b-	Herr
8AAJ	.	.	.	.	.	.
=1	=1	=1	=1	=1	=1	=1
8GGL	.	2d	2g	.	2b-	Gott,
8AA	.	.	.	.	.	.
8BB-	.	.	.	.	.	.
8CJ	.	.	.	.	.	.
8DL	.	4d	4f	.	4a	dich
8BB-J	.	.	.	.	.	.
=2	=2	=2	=2	=2	=2	=2
8E-L	.	2B-	2e-	.	2g	lo-
8F	.	.	.	.	.	.
8G	.	.	.	.	.	.
8AJ	.	.	.	.	.	.
8B-L	.	4B-	4d	.	4f	-ben
8AJ	.	.	.	.	.	.
=3	=3	=3	=3	=3	=3	=3
8GL	.	2B-	4d	al-	4b-	al-
8F	.	.	.	.	.	.
8E-	.	.	4g	.	2cc	-le
8DJ	.	.	.	.	.	.
8E-L	.	4A	4f	-le	.	.
8FJ	.	.	.	.	.	.
=4	=4	=4	=4	=4	=4	=4
2BB-;	.	2B-;	2f;	.	2dd;	wir
4FF#	.	4A	4a	.	4dd	und
=5	=5	=5	=5	=5	=5	=5
8GGL	.	2B-	2g	.	2dd	sol-
8D	.	.	.	.	.	.
8G	.	.	.	.	.	.
8FJ	.	.	.	.	.	.
8E-L	.	4B-	4g	.	4dd	-len
8DJ	.	.	.	.	.	.
=6	=6	=6	=6	=6	=6	=6
8E-L	.	4B-	4g	.	2cc	bil-
8C	.	.	.	.	.	.
8F	.	4A	4f	.	.	.
8E-J	.	.	.	.	.	.
8DL	.	4B-	4f	.	4dd	-lig
8CJ	.	.	.	.	.	.
=7	=7	=7	=7	=7	=7	=7
8BB-L	.	4c	4f	.	4ee-	dan-
8AAJ	.	.	.	.	.	.
8BB-L	.	2B-	2f	.	2dd	-ken
8C	.	.	.	.	.	.
8D	.	.	.	.	.	.
8E-J	.	.	.	.	.	.
=8	=8	=8	=8	=8	=8	=8
2F;	.	2A;	2f;	.	2cc;	dir
4G	.	4d	4g	.	4b-	fÃ¼r
=9	=9	=9	=9	=9	=9	=9
8AL	.	2c	2f	.	2cc	dein
8F	.	.	.	.	.	.
8G	.	.	.	.	.	.
8AJ	.	.	.	.	.	.
8B-L	.	4B-	8fL	.	4dd	Ge-
8GJ	.	.	8b-J	.	.	.
=10	=10	=10	=10	=10	=10	=10
8E-L	.	4B-	4g	.	2cc	-schÃ¶pf
8D	.	.	.	.	.	.
8E-	.	4A	8fL	.	.	.
8FJ	.	.	8e-J	.	.	.
8GL	.	4B-	4d	.	4b-	der
8DJ	.	.	.	.	.	.
=11	=11	=11	=11	=11	=11	=11
8E-L	En-	8B-L	4g	.	4g	en-
8BB-	.	8dJ	.	.	.	.
8C	.	(4e-	(4g	.	2a	-gel
8AAJ	.	.	.	.	.	.
8DL	-gel	4d)	4f#)	.	.	.
8DDJ	.	.	.	.	.	.
=12	=12	=12	=12	=12	=12	=12
2GG;	.	2d;	2g;	.	2b-;	schon,
4A	.	4c	4f	.	4ff	die
=13	=13	=13	=13	=13	=13	=13
8B-L	.	2d	2f	.	2dd	um
8c	.	.	.	.	.	.
8B-	.	.	.	.	.	.
8AJ	.	.	.	.	.	.
8GL	.	4d	4g	.	4b-	dich
8FJ	.	.	.	.	.	.
=14	=14	=14	=14	=14	=14	=14
8E-L	.	2A	2f	.	2cc	schweb'n
8G	.	.	.	.	.	.
8F	.	.	.	.	.	.
8E-J	.	.	.	.	.	.
8DL	.	4A	4f	.	4ee-	in
8CJ	.	.	.	.	.	.
=15	=15	=15	=15	=15	=15	=15
8BB-L	.	2B-	4f	dei-	4dd	dei-
8D	.	.	.	.	.	.
8E-	.	.	4g	.	2cc	-nem
8CJ	.	.	.	.	.	.
8FL	.	4A	8fL	-nem	.	.
8FFJ	.	.	8e-J	.	.	.
=16	=16	=16	=16	=16	=16	=16
2BB-;	.	2F;	2d;	.	2b-;	Thron.
==|!	==|!	==|!	==|!	==|!	==|!	==|!
*-	*-	*-	*-	*-	*-	*-
!!!RWG: Key is interpreted using the Humdrum key tool.
!!!URL-pdf: https://s9.imslp.org/files/imglnks/usimg/6/6b/IMSLP24489-PMLP09471-CCARH_Bach_Chorales.pdf#page=51 Musedata edition
!!!URL-pdf: https://s9.imslp.org/files/imglnks/usimg/7/7a/IMSLP04155-Bach_-_BGA_253-438.pdf#page=39 	Bach-Gesellschaft Ausgabe, Band 39 (pp.175-276) Leipzig: Breitkopf und Härtel, 1892. Plate B.W. XXXIX.
!!!END: 1994/06/08
!!!EMD: Converted from MuseData to Humdrum Dec 19, 2000, by Andreas Kornstaedt using muse2kern.
!!!EED: Craig Stuart Sapp
!!!EEV: 2024/03/31
!!!filter-keyboard: satb2gs
!!!title: @{OTL} (@{SCT})
